X: 1074
T: Amazing Grace
R: waltz
M: 3/4
K: Gmajor
L:1/4
D|"G"G2(3B/A/G/|B2A|"C"G2E|"G"D2D|G2 (3B/A/G/|"Em"B2 A/B/|"D"d3-|d2B|
"G"d2(3B/A/G/|B2A|"C"G2E|"G"D2D|G2 (3B/A/G/|"D"B2A|"G"G3-|G2||

